!!!SOCIAL_FUNCTION:	songs of the bat dance
!!!PDT:	1929
!!!OTL: No_151_My_Wings_Make_a_Noise_as_I_Fly.krn
!!!REG: Southwest
!!!LANG: Non-Tone
!!!LING_GROUP: Uto-Aztecan
**kern
*staff1
=1-
*clefF4
*k[f#]
*M2/4
8E\L
8E\J
4E\
=2||
*M3/4
16B\LK
8.c\J
16B\LK
8.c\J
8c\L
8c\J
=3
4B\
4B\
8G\L
8F#\J
=4
16B\LK
8.B\J
4B\
4B\
=5
4B\
4B\
8B\L
8G\J
=6
4G\
4G\
8F#\
8r
=7||
*M2/4
8G\L
8G\J
4G\
=8||
*M3/4
16B\LK
8.c\J
16B\LK
8.c\J
(8.B\L
16G\Jk)
=9
4G\
8G\L
8F#\J
4E\
=10||
*M2/4
4G\
8G\L
8F#\J
=11
4G\
8F#\L
8F#\J
=12||
*M3/4
8E\L
8E\J
4E\
8BB/
8r
=13||
*M2/4
8G\L
8F#\J
8E\L
8E\J
=14
4E\
8BB/L
8BB/J
=15
4E\
8E\L
8E\J
=16
4E\
8E\L
8E\J
=17
2E\
==
*-
